build/Karasa-Jaga/scalable/places/folder-saved-search-symbolic.svg

<svg height="16" width="16" xmlns="http://www.w3.org/2000/svg"><path d="m6.0386468 1.6129992c-2.1925727-.4292578-4.3092843.9943385-4.7385421 3.1869113-.42925815 2.1925744.9864224 4.3497205 3.1789951 4.7789782 1.1475358.2246628 2.2771589-.0804548 3.1647183-.7239648.0901019.1198705.1877749.2379445.3085083.3542997l4.8430796 4.6429254c.542473.52281 1.141766.754186 1.367761.519692l.531024-.56781c.225996-.234494-.02875-.848598-.571226-1.37141l-4.8026433-4.6350079c-.1356181-.1307029-.2999177-.2459945-.4377335-.3376138.1785183-.3389482.3064973-.7077058.383406-1.1005417.4292578-2.1925729-1.0347756-4.3172008-3.2273474-4.7464584zm-.3404087 1.7387474c1.2333218.2414575 2.0704659 1.43398 1.8290083 2.6673022-.2414575 1.2333225-1.4744161 2.0625501-2.7077379 1.8210926-1.2333227-.2414576-2.0221146-1.4664998-1.7806571-2.6998222.2414576-1.2333222 1.426064-2.0300302 2.6593867-1.7885726z" fill="#bebebe"/></svg>

<?xml version="1.0" encoding="UTF-8" standalone="no"?>
<!-- Created with Inkscape (http://www.inkscape.org/) -->

<svg
   xmlns:dc="http://purl.org/dc/elements/1.1/"
   xmlns:cc="http://creativecommons.org/ns#"
   xmlns:rdf="http://www.w3.org/1999/02/22-rdf-syntax-ns#"
   xmlns:svg="http://www.w3.org/2000/svg"
   xmlns="http://www.w3.org/2000/svg"
   xmlns:xlink="http://www.w3.org/1999/xlink"
   xmlns:sodipodi="http://sodipodi.sourceforge.net/DTD/sodipodi-0.dtd"
   xmlns:inkscape="http://www.inkscape.org/namespaces/inkscape"
   width="16px"
   height="16px"
   id="svg3925"
   version="1.1"
   inkscape:version="0.92.2 (unknown)"
   sodipodi:docname="folder-saved-search-symbolic.svg">
  <defs
     id="defs3927">
    <linearGradient
       inkscape:collect="always"
       xlink:href="#linearGradient3569"
       id="linearGradient4548"
       gradientUnits="userSpaceOnUse"
       x1="136.23065"
       y1="40.918156"
       x2="54.675591"
       y2="-40.636906" />
    <linearGradient
       id="linearGradient3569">
      <stop
         id="stop3571"
         offset="0"
         style="stop-color:#161616;stop-opacity:1;" />
      <stop
         id="stop3573"
         offset="1"
         style="stop-color:#3a3a3a;stop-opacity:1;" />
    </linearGradient>
    <linearGradient
       id="linearGradient4565">
      <stop
         id="stop4567"
         offset="0"
         style="stop-color:#161616;stop-opacity:1;" />
      <stop
         id="stop4569"
         offset="1"
         style="stop-color:#3a3a3a;stop-opacity:1;" />
    </linearGradient>
    <linearGradient
       y2="553.79077"
       x2="634.70819"
       y1="553.79077"
       x1="202.43466"
       gradientTransform="matrix(0.05087792,0,0,0.02977742,-7.5657662,-7.4945499)"
       gradientUnits="userSpaceOnUse"
       id="linearGradient5995"
       xlink:href="#linearGradient3755"
       inkscape:collect="always" />
    <linearGradient
       y2="553.79077"
       x2="634.70819"
       y1="522.48535"
       x1="202.43466"
       gradientTransform="matrix(0.58955358,0,0,0.34504915,969.45367,371.05017)"
       gradientUnits="userSpaceOnUse"
       id="linearGradient5992"
       xlink:href="#linearGradient3904"
       inkscape:collect="always" />
    <linearGradient
       y2="671.479"
       x2="157.54449"
       y1="416.56021"
       x1="430.39316"
       gradientTransform="matrix(-0.24006519,0.1264972,-0.07403526,-0.14050341,1326.9526,665.53423)"
       gradientUnits="userSpaceOnUse"
       id="linearGradient5989"
       xlink:href="#linearGradient3836"
       inkscape:collect="always" />
    <linearGradient
       y2="269.6875"
       x2="219.0134"
       y1="253.97322"
       x1="115.08324"
       gradientTransform="matrix(0.4447841,0,0,0.4447841,1026.7791,459.32923)"
       gradientUnits="userSpaceOnUse"
       id="linearGradient5986"
       xlink:href="#linearGradient3882"
       inkscape:collect="always" />
    <linearGradient
       y2="259.21863"
       x2="433.28125"
       y1="259.21863"
       x1="204.5"
       gradientTransform="matrix(0.4447841,0,0,0.4447841,1026.7791,459.32923)"
       gradientUnits="userSpaceOnUse"
       id="linearGradient5983"
       xlink:href="#linearGradient3830"
       inkscape:collect="always" />
    <linearGradient
       gradientTransform="matrix(0.98914046,0,0,0.98914046,1078.254,476.00639)"
       y2="99.575432"
       x2="71.560738"
       y1="109.17188"
       x1="11.901341"
       gradientUnits="userSpaceOnUse"
       id="linearGradient5977"
       xlink:href="#linearGradient3884"
       inkscape:collect="always" />
    <linearGradient
       y2="99.575432"
       x2="71.560738"
       y1="109.17188"
       x1="11.901341"
       gradientUnits="userSpaceOnUse"
       id="linearGradient5955"
       xlink:href="#linearGradient3884"
       inkscape:collect="always" />
    <radialGradient
       r="29.294424"
       fy="346.55649"
       fx="339.24591"
       cy="346.55649"
       cx="339.24591"
       gradientTransform="matrix(1.1724663,-0.43474171,0.3361412,0.90654801,-166.21154,181.14703)"
       gradientUnits="userSpaceOnUse"
       id="radialGradient5953"
       xlink:href="#linearGradient3895"
       inkscape:collect="always" />
    <radialGradient
       r="29.294424"
       fy="340.20465"
       fx="342.44171"
       cy="340.20465"
       cx="342.44171"
       gradientUnits="userSpaceOnUse"
       id="radialGradient5951"
       xlink:href="#linearGradient4060"
       inkscape:collect="always" />
    <linearGradient
       y2="259.21863"
       x2="433.28125"
       y1="259.21863"
       x1="204.5"
       gradientTransform="matrix(1.1224041,0,0,1.1224041,-43.42847,-34.668794)"
       gradientUnits="userSpaceOnUse"
       id="linearGradient5949"
       xlink:href="#linearGradient3830"
       inkscape:collect="always" />
    <linearGradient
       y2="269.6875"
       x2="219.0134"
       y1="253.97322"
       x1="115.08324"
       gradientTransform="matrix(1.1224041,0,0,1.1224041,-43.42847,-34.668794)"
       gradientUnits="userSpaceOnUse"
       id="linearGradient5947"
       xlink:href="#linearGradient3882"
       inkscape:collect="always" />
    <linearGradient
       y2="671.479"
       x2="157.54449"
       y1="416.56021"
       x1="430.39316"
       gradientTransform="matrix(-0.60579988,0.31921325,-0.18682655,-0.35455766,714.05366,485.68556)"
       gradientUnits="userSpaceOnUse"
       id="linearGradient5945"
       xlink:href="#linearGradient3836"
       inkscape:collect="always" />
    <linearGradient
       y2="553.79077"
       x2="634.70819"
       y1="522.48535"
       x1="202.43466"
       gradientTransform="matrix(1.4877271,0,0,0.87072489,-188.08796,-257.43929)"
       gradientUnits="userSpaceOnUse"
       id="linearGradient5943"
       xlink:href="#linearGradient3904"
       inkscape:collect="always" />
    <linearGradient
       y2="553.79077"
       x2="634.70819"
       y1="553.79077"
       x1="202.43466"
       gradientTransform="matrix(1.4877271,0,0,0.87072489,-188.08796,-257.43929)"
       gradientUnits="userSpaceOnUse"
       id="linearGradient5941"
       xlink:href="#linearGradient3755"
       inkscape:collect="always" />
    <linearGradient
       id="linearGradient3895">
      <stop
         id="stop3897"
         offset="0"
         style="stop-color:#ffc59f;stop-opacity:1" />
      <stop
         style="stop-color:#ff7676;stop-opacity:0.49803922;"
         offset="0.5"
         id="stop3899" />
      <stop
         id="stop3901"
         offset="1"
         style="stop-color:#ff3434;stop-opacity:0;" />
    </linearGradient>
    <linearGradient
       id="linearGradient3884">
      <stop
         style="stop-color:#182e87;stop-opacity:1"
         offset="0"
         id="stop3887" />
      <stop
         style="stop-color:#598eb9;stop-opacity:0;"
         offset="1"
         id="stop3889" />
    </linearGradient>
    <linearGradient
       inkscape:collect="always"
       xlink:href="#linearGradient3755"
       id="linearGradient4220"
       gradientUnits="userSpaceOnUse"
       gradientTransform="matrix(1.3254826,0,0,0.77576774,-128.88361,-198.4762)"
       x1="202.43466"
       y1="553.79077"
       x2="634.70819"
       y2="553.79077" />
    <linearGradient
       id="linearGradient3755">
      <stop
         style="stop-color:#b4d2eb;stop-opacity:1;"
         offset="0"
         id="stop3757" />
      <stop
         style="stop-color:#a7d0f2;stop-opacity:1;"
         offset="1"
         id="stop3759" />
    </linearGradient>
    <linearGradient
       inkscape:collect="always"
       xlink:href="#linearGradient3904"
       id="linearGradient4217"
       gradientUnits="userSpaceOnUse"
       gradientTransform="matrix(1.3254826,0,0,0.77576774,-128.88361,-198.4762)"
       x1="202.43466"
       y1="522.48535"
       x2="634.70819"
       y2="553.79077" />
    <linearGradient
       id="linearGradient3904">
      <stop
         style="stop-color:#35ab3b;stop-opacity:1;"
         offset="0"
         id="stop3906" />
      <stop
         style="stop-color:#6dc675;stop-opacity:1;"
         offset="1"
         id="stop3908" />
    </linearGradient>
    <linearGradient
       inkscape:collect="always"
       xlink:href="#linearGradient3836"
       id="linearGradient4214"
       gradientUnits="userSpaceOnUse"
       gradientTransform="matrix(-0.5397342,0.28440136,-0.16645213,-0.31589127,674.8747,463.60696)"
       x1="195.64301"
       y1="544.12054"
       x2="634.70819"
       y2="553.79077" />
    <linearGradient
       id="linearGradient3836">
      <stop
         id="stop3838"
         offset="0"
         style="stop-color:#edf657;stop-opacity:1;" />
      <stop
         id="stop3840"
         offset="1"
         style="stop-color:#b0b014;stop-opacity:1;" />
    </linearGradient>
    <linearGradient
       inkscape:collect="always"
       xlink:href="#linearGradient3882"
       id="linearGradient4211"
       gradientUnits="userSpaceOnUse"
       x1="115.08324"
       y1="253.97322"
       x2="219.0134"
       y2="269.6875" />
    <linearGradient
       id="linearGradient3882">
      <stop
         id="stop3884"
         offset="0"
         style="stop-color:#265e8d;stop-opacity:1;" />
      <stop
         id="stop3886"
         offset="1"
         style="stop-color:#96c7ef;stop-opacity:1;" />
    </linearGradient>
    <linearGradient
       inkscape:collect="always"
       xlink:href="#linearGradient3830"
       id="linearGradient4208"
       gradientUnits="userSpaceOnUse"
       x1="204.5"
       y1="259.21863"
       x2="433.28125"
       y2="259.21863" />
    <linearGradient
       id="linearGradient3830">
      <stop
         id="stop3832"
         offset="0"
         style="stop-color:#127f18;stop-opacity:1;" />
      <stop
         id="stop3834"
         offset="1"
         style="stop-color:#9ffaa7;stop-opacity:1;" />
    </linearGradient>
    <linearGradient
       inkscape:collect="always"
       xlink:href="#linearGradient4060"
       id="linearGradient4194"
       gradientUnits="userSpaceOnUse"
       x1="344.46201"
       y1="367.47876"
       x2="345.97726"
       y2="336.16403" />
    <linearGradient
       id="linearGradient4060">
      <stop
         style="stop-color:#ff1313;stop-opacity:1;"
         offset="0"
         id="stop4062" />
      <stop
         style="stop-color:#9e0000;stop-opacity:1;"
         offset="1"
         id="stop4064" />
    </linearGradient>
    <radialGradient
       inkscape:collect="always"
       xlink:href="#linearGradient4091"
       id="radialGradient4196"
       gradientUnits="userSpaceOnUse"
       cx="347.01721"
       cy="344.78015"
       fx="347.01721"
       fy="344.78015"
       r="29.294424" />
    <linearGradient
       id="linearGradient4091">
      <stop
         style="stop-color:#ffb9b9;stop-opacity:1;"
         offset="0"
         id="stop4093" />
      <stop
         id="stop3893"
         offset="0.5"
         style="stop-color:#ff7676;stop-opacity:0.49803922;" />
      <stop
         style="stop-color:#ff3434;stop-opacity:0;"
         offset="1"
         id="stop4095" />
    </linearGradient>
    <linearGradient
       inkscape:collect="always"
       xlink:href="#linearGradient4108"
       id="linearGradient4203"
       gradientUnits="userSpaceOnUse"
       x1="315.72769"
       y1="288.625"
       x2="346.7366"
       y2="338.625" />
    <linearGradient
       inkscape:collect="always"
       id="linearGradient4108">
      <stop
         style="stop-color:#ffffff;stop-opacity:1;"
         offset="0"
         id="stop4110" />
      <stop
         style="stop-color:#ffffff;stop-opacity:0;"
         offset="1"
         id="stop4112" />
    </linearGradient>
    <linearGradient
       y2="338.625"
       x2="346.7366"
       y1="288.625"
       x1="315.72769"
       gradientUnits="userSpaceOnUse"
       id="linearGradient4332"
       xlink:href="#linearGradient4108"
       inkscape:collect="always" />
    <linearGradient
       inkscape:collect="always"
       xlink:href="#linearGradient3755"
       id="linearGradient4979"
       gradientUnits="userSpaceOnUse"
       gradientTransform="matrix(1.3254826,0,0,0.77576774,-128.88361,-198.4762)"
       x1="202.43466"
       y1="553.79077"
       x2="634.70819"
       y2="553.79077" />
    <linearGradient
       inkscape:collect="always"
       xlink:href="#linearGradient3904"
       id="linearGradient4981"
       gradientUnits="userSpaceOnUse"
       gradientTransform="matrix(1.3254826,0,0,0.77576774,-128.88361,-198.4762)"
       x1="202.43466"
       y1="522.48535"
       x2="634.70819"
       y2="553.79077" />
    <linearGradient
       inkscape:collect="always"
       xlink:href="#linearGradient3836"
       id="linearGradient4983"
       gradientUnits="userSpaceOnUse"
       gradientTransform="matrix(-0.5397342,0.28440136,-0.16645213,-0.31589127,674.8747,463.60696)"
       x1="195.64301"
       y1="544.12054"
       x2="634.70819"
       y2="553.79077" />
    <linearGradient
       inkscape:collect="always"
       xlink:href="#linearGradient3882"
       id="linearGradient4985"
       gradientUnits="userSpaceOnUse"
       x1="115.08324"
       y1="253.97322"
       x2="219.0134"
       y2="269.6875" />
    <linearGradient
       inkscape:collect="always"
       xlink:href="#linearGradient3830"
       id="linearGradient4987"
       gradientUnits="userSpaceOnUse"
       x1="204.5"
       y1="259.21863"
       x2="433.28125"
       y2="259.21863" />
    <linearGradient
       inkscape:collect="always"
       xlink:href="#linearGradient4108"
       id="linearGradient4993"
       gradientUnits="userSpaceOnUse"
       x1="315.72769"
       y1="288.625"
       x2="346.7366"
       y2="338.625" />
    <linearGradient
       x1="31.785"
       y1="14.883"
       x2="76.799004"
       gradientUnits="userSpaceOnUse"
       xlink:href="#linearGradient1334"
       y2="26.226"
       id="linearGradient2229" />
    <linearGradient
       x1="1.0448999"
       y1="22.382999"
       x2="45.431"
       gradientUnits="userSpaceOnUse"
       xlink:href="#linearGradient1334"
       y2="31.877001"
       id="linearGradient2227" />
    <linearGradient
       x1="3.5197001"
       y1="16.549"
       x2="45.431"
       gradientUnits="userSpaceOnUse"
       xlink:href="#linearGradient1334"
       y2="31.877001"
       id="linearGradient1340" />
    <radialGradient
       r="153.39999"
       gradientTransform="matrix(8.7163e-6,-0.66559,0.95758,0,178.49,133.09)"
       cx="191.41"
       cy="7.7860999"
       gradientUnits="userSpaceOnUse"
       id="radialGradient4071">
      <stop
         offset="0"
         id="stop4189" />
      <stop
         offset="1"
         style="stop-opacity:0"
         id="stop4191" />
    </radialGradient>
    <linearGradient
       id="linearGradient1334">
      <stop
         offset="0"
         style="stop-color:#fff"
         id="stop1336" />
      <stop
         offset=".25"
         style="stop-color:#fff;stop-opacity:0"
         id="stop1346" />
      <stop
         offset=".34488"
         style="stop-color:#fff"
         id="stop1342" />
      <stop
         offset=".86310"
         style="stop-color:#fff;stop-opacity:0"
         id="stop1344" />
      <stop
         offset="1"
         style="stop-color:#fff"
         id="stop1338" />
    </linearGradient>
  </defs>
  <sodipodi:namedview
     id="base"
     pagecolor="#ffffff"
     bordercolor="#666666"
     borderopacity="1.0"
     inkscape:pageopacity="0.0"
     inkscape:pageshadow="2"
     inkscape:zoom="15.696216"
     inkscape:cx="-0.53141018"
     inkscape:cy="10.473174"
     inkscape:current-layer="layer1"
     showgrid="true"
     inkscape:grid-bbox="true"
     inkscape:document-units="px"
     inkscape:window-width="1366"
     inkscape:window-height="716"
     inkscape:window-x="0"
     inkscape:window-y="27"
     inkscape:window-maximized="1"
     showguides="true"
     inkscape:guide-bbox="true" />
  <metadata
     id="metadata3930">
    <rdf:RDF>
      <cc:Work
         rdf:about="">
        <dc:format>image/svg+xml</dc:format>
        <dc:type
           rdf:resource="http://purl.org/dc/dcmitype/StillImage" />
        <dc:title />
      </cc:Work>
    </rdf:RDF>
  </metadata>
  <g
     id="layer1"
     inkscape:label="Layer 1"
     inkscape:groupmode="layer">
    <path
       style="fill:#bebebe;fill-opacity:1;stroke:none"
       d="M 6.0386468,1.6129992 C 3.8460741,1.1837414 1.7293625,2.6073377 1.3001047,4.7999105 0.87084655,6.9924849 2.2865271,9.149631 4.4790998,9.5788887 5.6266356,9.8035515 6.7562587,9.4984339 7.6438181,8.8549239 7.73392,8.9747944 7.831593,9.0928684 7.9523264,9.2092236 l 4.8430796,4.6429254 c 0.542473,0.52281 1.141766,0.754186 1.367761,0.519692 l 0.531024,-0.56781 c 0.225996,-0.234494 -0.02875,-0.848598 -0.571226,-1.37141 L 9.3203217,7.7976131 C 9.1847036,7.6669102 9.020404,7.5516186 8.8825882,7.4599993 9.0611065,7.1210511 9.1890855,6.7522935 9.2659942,6.3594576 9.695252,4.1668847 8.2312186,2.0422568 6.0386468,1.6129992 Z M 5.6982381,3.3517466 C 6.9315599,3.5932041 7.768704,4.7857266 7.5272464,6.0190488 7.2857889,7.2523713 6.0528303,8.0815989 4.8195085,7.8401414 3.5861858,7.5986838 2.7973939,6.3736416 3.0388514,5.1403192 3.280309,3.906997 4.4649154,3.110289 5.6982381,3.3517466 Z"
       id="path4618"
       inkscape:connector-curvature="0"
       sodipodi:nodetypes="sssccccccccsssssss" />
  </g>
</svg>
